src/bright/hiso font bright_p15-left arrow reversed.svg

<svg xmlns="http://www.w3.org/2000/svg" width="126" height="126" viewBox="0 0 126 126"><path fill="#000101" d="M0 63l36 54 18-9 18 9 34.32-17.16 1.68-.84v-36l-36-18v-18l-72 36zm69-18.17l-31.5 15.75v-12.98l31.5-15.75v12.98zm33.969 19.01l-30.969 15.49-32.65-16.33 30.97-15.49 32.649 16.33zm-29.469 49.06v-30.969l31.5-15.751v30.97l-31.5 15.75zm-36 0v-13.15l13.141 6.57-13.141 6.58z"/></svg>

<svg xmlns="http://www.w3.org/2000/svg" width="126" height="126"><path fill="#000101" d="M0 63l36 54 18-9 18 9 34.32-17.16L108 99V63L72 45V27L0 63zm69-18.17L37.5 60.58V47.6L69 31.85v12.98zm33.969 19.01L72 79.33 39.35 63l30.97-15.49 32.649 16.33zM73.5 112.9V81.931L105 66.18v30.97L73.5 112.9zm-36 0V99.75l13.141 6.57L37.5 112.9z"/></svg>
